Adwaita++-Light/panel/16/laptopattention.svg

<svg height="16" width="16" xmlns="http://www.w3.org/2000/svg">
  <path d="m2 2c-.554 0-1 .446-1 1v9c0 .554.446 1 1 1h-2v1c0 .554.892 1 2 1h11v-3h-10v-8h10v2h2v-3c0-.554-.446-1-1-1zm4 11h4v1h-4z" fill="#444"/>
  <path d="m14 7v4l.25 2h1.5l.25-2v-4zm0 7v2h2v-2z" fill="#4285f4"/>
</svg>

<svg xmlns="http://www.w3.org/2000/svg" width="16" height="16" version="1.1">
 <defs>
  <style id="current-color-scheme" type="text/css">
   .ColorScheme-Text { color:#444444; } .ColorScheme-Highlight { color:#4285f4; }
  </style>
 </defs>
 <path style="fill:currentColor" class="ColorScheme-Text" d="M 2 2 C 1.446 2 1 2.446 1 3 L 1 12 C 1 12.554 1.446 13 2 13 L 0 13 L 0 14 C 0 14.554 0.892 15 2 15 L 13 15 L 13 12 L 3 12 L 3 4 L 13 4 L 13 6 L 15 6 L 15 3 C 15 2.446 14.554 2 14 2 L 2 2 z M 6 13 L 10 13 L 10 14 L 6 14 L 6 13 z"/>
 <path style="fill:currentColor" class="ColorScheme-Highlight" d="M 14,7 V 11 L 14.25,13 H 15.75 L 16,11 V 7 Z M 14,14 V 16 H 16 V 14 Z"/>
</svg>
